X:1
T:Title
%%score ( 1 2 ) ( 3 4 ) ( 5 6 )
L:1/8
Q:1/4=120
M:2/4
K:A
V:1 bass nm="Picked Bass, Baritone Voice"
V:2 bass 
V:3 treble nm="Picked Bass, Soprano Voice"
V:4 treble 
V:5 bass nm="Picked Bass, Tenor Voice"
V:6 bass 
V:1
 .A,2 z G, | F,4 | (3:2:4A,2 G,2 F,D, | E,2 E,2 | F,2 F,2 | .E,2 E,2 | A,2 E,2 | A,,4 | .A,2 A,G, | %9
 F,2 E,2 | (3:2:4A,2 G,2 F,D,- | [D,E,]2 .E,2 | F,2 F,2 | E,2 E,2 | A,2 E,2 | A,,4 | A,G, F,D, | %17
 E,2 E,2 | .A,2 .A,2 | A,4 | A,3 G, | F,G, A,2 | .E,2 E,2 | A,,4 | A,G, F,D, | .E,2 E,2 | %26
 .A,2 .A,2 | A,4 | A,3 G, | F,G, A,2 | z2 E,2- | E,2 z2 |] %32
V:2
 z2 A,2 | z2 E,2 | x4 | x4 | x4 | x4 | x4 | x4 | x4 | x4 | x4 | x4 | x4 | x4 | x4 | x4 | x4 | x4 | %18
 x4 | x4 | x4 | x4 | x4 | x4 | x4 | x4 | x4 | x4 | x4 | x4 | .E,2 z2 | A,,4 |] %32
V:3
 .e2 .e2 | c2 c2 | Ac BA | .e2 .e2 | (3c2 z2 c2 | Ac Bc | .e2 e2 | c4 | .e2 e2 | .c2 c2 | Ac BA | %11
 .e2 e2 | .c2 c2 | Ac Bc | .e2 e2 | c4 | cB Ac | .B2 B2 | [ce]2 [ce]2 | c4 | A4 | c2 f2 | .e2 e2 | %23
 c4 | (3:2:4c2 B2 Ac | .B2 B2 | .[ce]2 .[ce]2 | c4 | A3 B | z2 f2- | f2 z2 | c4 |] %32
V:4
 x4 | x4 | x4 | x4 | x4 | x4 | x4 | x4 | x4 | x4 | x4 | x4 | x4 | x4 | x4 | x4 | x4 | x4 | x4 | %19
 x4 | z2 z B- | B2 z2 | x4 | x4 | x4 | x4 | x4 | x4 | x4 | c2 z2 | .e2 e2 | x4 |] %32
V:5
 .A,2 A,B, | C2 A,2 | B,2 C2 | A,F, E,2 | A,2 B,2 | CD E2 | CA,[K:bass] B,2 | A,4 | .A,2 A,B, | %9
 C2 A,2 | z2 C2- | C2 z2 | A,2 B,2 | CD E2 | CA,[K:bass] B,2 | A,4 | A,B, C[K:treble]D | E2 z2 | %18
 F2 F2 | E4 | E3 .F | C[K:bass]B, A,B, | C2 B,2 | A,4 | A,B,[K:treble] CD | E2 E2 | F2 F2 | E4 | %28
 E3 F | (3:2:5z C[K:bass] B,2 A,B, | C2 B,2 | A,4 |] %32
V:6
 x4 | x4 | x4 | x4 | x4 | x4 | x2[K:bass] x2 | x4 | x4 | x4 | B,2 z2 | A,F, E,2 | x4 | x4 | %14
 x2[K:bass] x2 | x4 | x3[K:treble] x | z2 E2- | E2 z2 | x4 | x4 | x[K:bass] x3 | x4 | x4 | %24
 x2[K:treble] x2 | x4 | x4 | x4 | x4 | x4/3[K:bass] x8/3 | x4 | x4 |] %32

